src/assets/images/audit_service.svg

<svg width="750" height="704" viewBox="0 0 750 704" fill="none" xmlns="http://www.w3.org/2000/svg">
<path d="M543.377 63.1119C581.935 110.121 585.401 182.576 584.968 255.03C584.535 327.484 580.636 399.508 542.511 462.905C503.953 525.872 431.602 580.213 364.017 575.469C296.432 570.724 233.18 507.327 180.325 443.929C127.47 380.963 84.1463 317.996 85.0128 256.324C86.3125 194.651 131.369 134.273 184.224 87.2634C237.512 40.2543 298.165 7.04597 365.317 1.00809C432.469 -5.02978 505.252 16.1028 543.377 63.1119Z" fill="#49E69A"/>
<g clip-path="url(#clip0)">
<path d="M251.173 597.01L281.142 648.929L311.121 700.849H251.173H191.224L221.194 648.929L251.173 597.01Z" fill="#FDCF00" stroke="#2C3E50" stroke-width="5" stroke-miterlimit="10"/>
<path d="M399.843 316.949H202.331V428.404H399.843V316.949Z" stroke="#2C3E50" stroke-width="5" stroke-miterlimit="10"/>
<path d="M607.011 437.699H492.584V544.967" stroke="#2C3E50" stroke-width="5" stroke-miterlimit="10"/>
<path d="M603.977 543.745H544.178L535.991 529.56L565.881 477.773L603.977 543.745Z" fill="#453396"/>
<path d="M544.178 543.745H501.703L522.94 506.96L535.991 529.56L544.178 543.745Z" fill="#9C47ED"/>
<path d="M524.136 482.556C533.165 482.556 540.484 475.237 540.484 466.209C540.484 457.18 533.165 449.861 524.136 449.861C515.108 449.861 507.789 457.18 507.789 466.209C507.789 475.237 515.108 482.556 524.136 482.556Z" stroke="#2C3E50" stroke-width="5" stroke-miterlimit="10"/>
<path d="M185.57 289.996C188.77 289.996 191.365 287.401 191.365 284.2C191.365 281 188.77 278.405 185.57 278.405C182.369 278.405 179.775 281 179.775 284.2C179.775 287.401 182.369 289.996 185.57 289.996Z" stroke="#2C3E50" stroke-width="5" stroke-miterlimit="10"/>
<path d="M206.957 289.996C210.157 289.996 212.752 287.401 212.752 284.2C212.752 281 210.157 278.405 206.957 278.405C203.756 278.405 201.161 281 201.161 284.2C201.161 287.401 203.756 289.996 206.957 289.996Z" stroke="#2C3E50" stroke-width="5" stroke-miterlimit="10"/>
<path d="M228.343 289.996C231.544 289.996 234.139 287.401 234.139 284.2C234.139 281 231.544 278.405 228.343 278.405C225.143 278.405 222.548 281 222.548 284.2C222.548 287.401 225.143 289.996 228.343 289.996Z" stroke="#2C3E50" stroke-width="5" stroke-miterlimit="10"/>
<path d="M641.518 266.533H167.911V578.789H641.518V266.533Z" stroke="#2C3E50" stroke-width="5" stroke-miterlimit="10"/>
<path d="M452.316 190.941C436.355 206.902 411.257 208.168 393.854 194.722L353.851 234.726C351.626 236.951 348.02 236.951 345.787 234.726C343.562 232.501 343.562 228.895 345.787 226.662L385.79 186.658C381.121 180.617 378.227 173.643 377.111 166.45C374.991 152.925 379.151 138.617 389.572 128.196C398.788 118.98 411.055 114.662 423.129 115.251C433.744 115.779 444.208 120.088 452.325 128.196C469.64 145.52 469.64 173.617 452.316 190.941Z" stroke="#2C3E50" stroke-width="5" stroke-miterlimit="10"/>
<path d="M366.523 222.045C364.298 224.27 360.692 224.27 358.467 222.045C356.243 219.82 356.243 216.206 358.459 213.981" stroke="#2C3E50" stroke-width="5" stroke-miterlimit="10"/>
<path d="M420.94 196.789C441.498 196.789 458.164 180.123 458.164 159.564C458.164 139.005 441.498 122.339 420.94 122.339C400.381 122.339 383.715 139.005 383.715 159.564C383.715 180.123 400.381 196.789 420.94 196.789Z" stroke="#2C3E50" stroke-width="5" stroke-miterlimit="10"/>
<path d="M202.331 428.404L399.834 316.949" stroke="#2C3E50" stroke-width="5" stroke-miterlimit="10"/>
<path d="M399.834 428.404L202.331 316.949" stroke="#2C3E50" stroke-width="5" stroke-miterlimit="10"/>
<path d="M469.394 454.346H202.331V475.733H469.394V454.346Z" fill="#FF7D7D"/>
<path d="M469.394 487.595H202.331V508.982H469.394V487.595Z" fill="#FF7D7D"/>
<path d="M469.394 520.845H202.331V542.232H469.394V520.845Z" fill="#FF7D7D"/>
<path d="M488.279 316.944V400.539H517.167V316.944H488.279Z" stroke="#2C3E50" stroke-width="5" stroke-miterlimit="10"/>
<path d="M533.203 316.952V372.679H562.091V316.952H533.203Z" stroke="#2C3E50" stroke-width="5" stroke-miterlimit="10"/>
<path d="M443.364 316.953V428.407H472.252V316.953H443.364Z" stroke="#2C3E50" stroke-width="5" stroke-miterlimit="10"/>
<path d="M578.127 316.943V344.811H607.015V316.943H578.127Z" stroke="#2C3E50" stroke-width="5" stroke-miterlimit="10"/>
<path d="M246.538 682.091C246.538 679.259 248.499 677.219 251.173 677.219C254.004 677.219 255.807 679.259 255.807 682.091C255.807 684.844 254.004 686.954 251.173 686.954C248.42 686.963 246.538 684.844 246.538 682.091ZM248.499 670.87L247.4 633.179H254.936L253.837 670.87H248.499Z" stroke="#2C3E50" stroke-width="5" stroke-miterlimit="10"/>
<path d="M739.729 533.641C739.729 557.041 720.76 576.01 697.359 576.01C673.959 576.01 654.99 557.041 654.99 533.641C654.99 510.24 673.959 491.263 697.359 491.263C702.583 491.263 707.587 492.204 712.204 493.936L697.359 533.641L739.219 527.028C739.553 529.182 739.729 531.389 739.729 533.641Z" stroke="#2C3E50" stroke-width="5" stroke-miterlimit="10"/>
<path d="M747.485 520.151L705.626 526.764L720.47 487.068C734.558 492.335 745.093 504.893 747.485 520.151Z" fill="#9C47ED" stroke="#2C3E50" stroke-width="5" stroke-miterlimit="10"/>
<path d="M370.893 560.304C374.172 560.304 376.829 557.646 376.829 554.368C376.829 551.09 374.172 548.432 370.893 548.432C367.615 548.432 364.957 551.09 364.957 554.368C364.957 557.646 367.615 560.304 370.893 560.304Z" stroke="#2C3E50" stroke-width="5" stroke-miterlimit="10"/>
<path d="M180.091 436.257C183.369 436.257 186.027 433.599 186.027 430.321C186.027 427.042 183.369 424.385 180.091 424.385C176.813 424.385 174.155 427.042 174.155 430.321C174.155 433.599 176.813 436.257 180.091 436.257Z" stroke="#2C3E50" stroke-width="5" stroke-miterlimit="10"/>
<path d="M344.116 309.043C347.394 309.043 350.052 306.386 350.052 303.108C350.052 299.829 347.394 297.172 344.116 297.172C340.837 297.172 338.18 299.829 338.18 303.108C338.18 306.386 340.837 309.043 344.116 309.043Z" stroke="#2C3E50" stroke-width="5" stroke-miterlimit="10"/>
<path d="M586.89 368.904C590.168 368.904 592.826 366.246 592.826 362.968C592.826 359.69 590.168 357.032 586.89 357.032C583.612 357.032 580.954 359.69 580.954 362.968C580.954 366.246 583.612 368.904 586.89 368.904Z" stroke="#2C3E50" stroke-width="5" stroke-miterlimit="10"/>
<path d="M370.893 560.304C369.214 597.757 341.891 635.263 292.231 644.937" stroke="#2C3E50" stroke-width="5" stroke-miterlimit="10"/>
<path d="M91.7472 477.711C110.944 446.932 135.673 431.947 174.155 430.321" stroke="#2C3E50" stroke-width="5" stroke-miterlimit="10"/>
<path d="M350.043 303.108C381.78 298.561 414.81 260.387 401.136 213.99" stroke="#2C3E50" stroke-width="5" stroke-miterlimit="10"/>
<path d="M592.571 364.683C645.458 384.531 676.236 424.244 686.314 482.565" stroke="#2C3E50" stroke-width="5" stroke-miterlimit="10"/>
<path d="M51.6996 465.03C23.1896 465.03 0 488.229 0 516.739C0 545.249 23.1896 568.438 51.6996 568.438C80.2095 568.438 103.399 545.249 103.399 516.739C103.399 488.229 80.2095 465.03 51.6996 465.03ZM16.2776 505.562C17.5527 505.562 18.5904 506.599 18.5904 507.874C18.5904 509.149 17.5527 510.187 16.2776 510.187C15.0025 510.187 13.9648 509.149 13.9648 507.874C13.9648 506.599 15.0113 505.562 16.2776 505.562ZM14.0615 488.202V501.499C11.4233 502.422 9.53263 504.92 9.53263 507.866C9.53263 511.585 12.5577 514.619 16.2864 514.619C19.2323 514.619 21.7298 512.72 22.6532 510.09H26.4434V512.465C26.4434 518.374 28.1054 524.161 31.1393 529.164H6.11179C5.03013 525.207 4.44094 521.039 4.44094 516.739C4.44094 506.028 8.02887 496.134 14.0615 488.202ZM63.9495 532.497L51.7084 544.167L39.4584 532.497C33.9974 527.3 30.8755 520.001 30.8755 512.456V497.418C35.3868 496.53 38.9572 492.96 39.8541 488.449H63.5626C64.4596 492.96 68.0211 496.53 72.5412 497.418V512.456C72.5324 520.001 69.4018 527.3 63.9495 532.497ZM7.56279 533.597H34.3843C35.0263 534.327 35.6858 535.039 36.3981 535.716L51.7084 550.305L67.0186 535.716C67.7221 535.039 68.3905 534.335 69.0324 533.597H78.8113C79.4884 535.531 81.0186 537.061 82.962 537.747V552.143C74.6254 559.512 63.6857 563.997 51.7084 563.997C31.579 563.997 14.3693 551.352 7.56279 533.597ZM85.1781 533.685C83.903 533.685 82.8653 532.647 82.8653 531.372C82.8653 530.097 83.903 529.059 85.1781 529.059C86.4532 529.059 87.4909 530.097 87.4909 531.372C87.4821 532.656 86.4532 533.685 85.1781 533.685ZM87.3942 547.658V537.747C90.0236 536.824 91.9231 534.327 91.9231 531.381C91.9231 527.661 88.8979 524.627 85.1693 524.627C82.2233 524.627 79.7259 526.526 78.8025 529.156H72.2686C75.3025 524.161 76.9646 518.374 76.9646 512.456V493.197H74.7485C70.9055 493.197 67.7837 490.067 67.7837 486.232V484.008H35.6243V486.232C35.6243 490.067 32.5024 493.197 28.6595 493.197H26.4434V505.649H22.6532C21.9761 503.715 20.4459 502.176 18.5112 501.499V483.137C27.0502 474.695 38.7813 469.471 51.7084 469.471C73.9482 469.471 92.6354 484.922 97.6391 505.641H76.9734V510.082H98.4921C98.7999 512.254 98.967 514.47 98.967 516.73C98.967 528.558 94.5964 539.365 87.3942 547.658Z" fill="#2C3E50"/>
<path d="M63.4307 504.744L50.9521 517.231L43.4508 509.73L40.9622 512.218L50.9521 522.2L52.192 520.96L53.432 519.72L65.9194 507.232L63.4307 504.744Z" fill="#2C3E50"/>
</g>
<defs>
<clipPath id="clip0">
<rect width="750" height="590.047" fill="white" transform="translate(0 113)"/>
</clipPath>
</defs>
</svg>

<svg xmlns="http://www.w3.org/2000/svg" xmlns:xlink="http://www.w3.org/1999/xlink" viewBox="0 0 750.34 691.46"><defs><style>.cls-1,.cls-4,.cls-9{fill:none;}.cls-2{fill:#49e69a;}.cls-3{clip-path:url(#clip-path);}.cls-4,.cls-8,.cls-9{stroke:#2c3e50;stroke-width:5px;}.cls-4,.cls-8{stroke-miterlimit:10;}.cls-5{fill:#2c3e50;}.cls-6,.cls-8{fill:#9c47ed;}.cls-7{fill:#ff7d7d;}.cls-9{stroke-linecap:round;stroke-linejoin:round;}</style><clipPath id="clip-path"><rect class="cls-1" y="113" width="750" height="590.05"/></clipPath></defs><title>hosting-email-vector</title><g id="Layer_2" data-name="Layer 2"><g id="Layer_1-2" data-name="Layer 1"><path class="cls-2" d="M543.38,63.11c38.55,47,42,119.47,41.59,191.92s-4.33,144.48-42.46,207.88C504,525.87,431.6,580.21,364,575.47s-130.84-68.14-183.7-131.54C127.47,381,84.15,318,85,256.32c1.3-61.67,46.36-122,99.21-169.06,53.29-47,114-80.21,181.1-86.25S505.25,16.1,543.38,63.11Z"/><g class="cls-3"><path class="cls-4" d="M399.84,317H202.33V428.4H399.84Z"/><path class="cls-4" d="M607,437.7H492.58V545"/><path class="cls-5" d="M604,543.74h-59.8L536,529.56l29.89-51.79Z"/><path class="cls-6" d="M544.18,543.74H501.7L522.94,507l13,22.6Z"/><path class="cls-4" d="M524.14,482.56a16.35,16.35,0,1,0-16.35-16.35A16.35,16.35,0,0,0,524.14,482.56Z"/><path class="cls-4" d="M185.57,290a5.8,5.8,0,1,0-5.8-5.8A5.8,5.8,0,0,0,185.57,290Z"/><path class="cls-4" d="M207,290a5.8,5.8,0,1,0-5.8-5.8A5.8,5.8,0,0,0,207,290Z"/><path class="cls-4" d="M228.34,290a5.8,5.8,0,1,0-5.79-5.8A5.8,5.8,0,0,0,228.34,290Z"/><path class="cls-4" d="M641.52,266.53H167.91V578.79H641.52Z"/><path class="cls-4" d="M452.32,190.94a44.39,44.39,0,0,1-58.47,3.78l-40,40a5.7,5.7,0,0,1-8.06-8.07l40-40a44.38,44.38,0,1,1,66.53,4.28Z"/><path class="cls-4" d="M366.52,222.05a5.7,5.7,0,0,1-8.06-8.07"/><path class="cls-4" d="M420.94,196.79a37.23,37.23,0,1,0-37.23-37.23A37.22,37.22,0,0,0,420.94,196.79Z"/><path class="cls-4" d="M202.33,428.4,399.83,317"/><path class="cls-4" d="M399.83,428.4,202.33,317"/><path class="cls-7" d="M469.39,454.35H202.33v21.38H469.39Z"/><path class="cls-7" d="M469.39,487.6H202.33V509H469.39Z"/><path class="cls-7" d="M469.39,520.84H202.33v21.39H469.39Z"/><path class="cls-4" d="M488.28,316.94v83.6h28.89v-83.6Z"/><path class="cls-4" d="M533.2,317v55.73h28.89V317Z"/><path class="cls-4" d="M443.36,317V428.41h28.89V317Z"/><path class="cls-4" d="M578.13,316.94v27.87H607V316.94Z"/><path class="cls-4" d="M739.73,533.64a42.36,42.36,0,1,1-27.53-39.7l-14.84,39.7L739.22,527A43.57,43.57,0,0,1,739.73,533.64Z"/><path class="cls-8" d="M747.48,520.15l-41.85,6.61,14.84-39.69A42.39,42.39,0,0,1,747.48,520.15Z"/><path class="cls-4" d="M370.89,560.3a5.94,5.94,0,1,0-5.93-5.93A5.93,5.93,0,0,0,370.89,560.3Z"/><path class="cls-4" d="M180.09,436.26a5.94,5.94,0,1,0-5.94-5.94A5.94,5.94,0,0,0,180.09,436.26Z"/><path class="cls-4" d="M344.12,309a5.94,5.94,0,1,0-5.94-5.93A5.93,5.93,0,0,0,344.12,309Z"/><path class="cls-4" d="M586.89,368.9A5.94,5.94,0,1,0,581,363,5.93,5.93,0,0,0,586.89,368.9Z"/><path class="cls-4" d="M370.89,560.3c-1.68,37.46-29,75-78.66,84.64"/><path class="cls-4" d="M91.75,477.71c19.19-30.78,43.92-45.76,82.4-47.39"/><path class="cls-4" d="M350,303.11c31.74-4.55,64.77-42.72,51.1-89.12"/><path class="cls-4" d="M592.57,364.68c52.89,19.85,83.67,59.56,93.74,117.89"/><path class="cls-5" d="M51.7,465a51.71,51.71,0,1,0,51.7,51.71A51.76,51.76,0,0,0,51.7,465ZM16.28,505.56A2.32,2.32,0,1,1,14,507.87,2.32,2.32,0,0,1,16.28,505.56ZM14.06,488.2v13.3a6.75,6.75,0,1,0,8.59,8.59h3.79v2.38a32.3,32.3,0,0,0,4.7,16.69h-25a47.11,47.11,0,0,1,8-41ZM64,532.5,51.71,544.17,39.46,532.5a27.78,27.78,0,0,1-8.58-20v-15a11.44,11.44,0,0,0,9-9H63.56a11.45,11.45,0,0,0,9,9v15A27.87,27.87,0,0,1,64,532.5ZM7.56,533.6H34.38c.65.73,1.31,1.44,2,2.12L51.71,550.3,67,535.72c.7-.68,1.37-1.38,2-2.12h9.78A6.83,6.83,0,0,0,83,537.75v14.39A47.2,47.2,0,0,1,7.56,533.6Zm77.62.08a2.31,2.31,0,1,1,2.31-2.31A2.3,2.3,0,0,1,85.18,533.68Zm2.21,14v-9.91a6.75,6.75,0,1,0-8.59-8.59H72.27A32.3,32.3,0,0,0,77,512.46V493.2H74.75a7,7,0,0,1-7-7V484H35.62v2.22a7,7,0,0,1-7,7H26.44v12.45H22.65a6.74,6.74,0,0,0-4.14-4.15V483.14a47.21,47.21,0,0,1,79.13,22.5H77v4.44H98.49a47,47,0,0,1-11.1,37.58Z"/><path class="cls-5" d="M63.43,504.74,51,517.23l-7.5-7.5L41,512.22l10,10L52.19,521l1.24-1.24,12.49-12.49Z"/></g><path class="cls-9" d="M202.8,618.54h70.42a8.83,8.83,0,0,1,8.8,8.8v52.81a8.83,8.83,0,0,1-8.8,8.81H202.8a8.83,8.83,0,0,1-8.8-8.81V627.34A8.83,8.83,0,0,1,202.8,618.54Z"/><polyline class="cls-9" points="282.02 627.34 238.01 658.15 194 627.34"/></g></g></svg>
